assets/images/icons/src/facebook-official.svg

<?xml version="1.0" encoding="utf-8"?>
<!-- Generated by IcoMoon.io -->
<!DOCTYPE svg PUBLIC "-//W3C//DTD SVG 1.1//EN" "http://www.w3.org/Graphics/SVG/1.1/DTD/svg11.dtd">
<svg version="1.1" xmlns="http://www.w3.org/2000/svg" xmlns:xlink="http://www.w3.org/1999/xlink" width="12" height="14" viewBox="0 0 12 14">
<path fill="#444444" d="M11.336 1q0.273 0 0.469 0.195t0.195 0.469v10.672q0 0.273-0.195 0.469t-0.469 0.195h-3.055v-4.648h1.555l0.234-1.812h-1.789v-1.156q0-0.438 0.184-0.656t0.715-0.219l0.953-0.008v-1.617q-0.492-0.070-1.391-0.070-1.062 0-1.699 0.625t-0.637 1.766v1.336h-1.563v1.812h1.563v4.648h-5.742q-0.273 0-0.469-0.195t-0.195-0.469v-10.672q0-0.273 0.195-0.469t0.469-0.195h10.672z"></path>
</svg>

<svg xmlns="http://www.w3.org/2000/svg" width="12" height="14" viewBox="0 0 12 14"><path fill="#444" d="M11.336 1q.273 0 .469.195t.195.469v10.672q0 .273-.195.469t-.469.195H8.281V8.352h1.555l.234-1.812H8.281V5.384q0-.438.184-.656t.715-.219l.953-.008V2.884q-.492-.07-1.391-.07-1.062 0-1.699.625t-.637 1.766v1.336H4.843v1.812h1.563v4.648H.664q-.273 0-.469-.195T0 12.337V1.665q0-.273.195-.469t.469-.195h10.672z"/></svg>
